src/assets/img/unsorted/emotes/18.svg

<svg xmlns:xlink="http://www.w3.org/1999/xlink" height="100.8" width="132.65" xmlns="http://www.w3.org/2000/svg"><use height="18" transform="translate(65.5 67.65)" width="24.45" xlink:href="#a"/><defs><g id="a"><path d="M6.4-.6q2.5.5 5.1 1.4l.7.85-3.15.25-1.7-.15-2.5-.2L.9 1.4l-6.3.1-2.5.25h-.25l-.6.1-3.45-.1-.05-.15q0-.7 2.35-1.6l3.15-.75.05-.05 5.45-.55h1.6l.6.05-.05.7.05-.7 5.45.7m-7.6-.1-.05-.6v-.05.05l.05.6" fill-opacity=".153" fill-rule="evenodd" transform="translate(12.25 5.9)"/><path d="m1.1-2.3.25-.85v.05l-.05.7-.2.1" fill="#fff" fill-rule="evenodd" transform="translate(12.25 5.9)"/><path d="m1.35-3.15.35-.8q.6-1.1 1.4-1.35l.55-.1q1.15 0 1.95 1.45.65 1.1.8 2.65v.7M-6.7-.8l.05-.5q.15-1.5.8-2.6.75-1.45 1.9-1.45l.65.15q.75.25 1.3 1.3.6 1.05.75 2.45v.15l.05.6m2.15-.6v-.1l.15-.9.25-.85M.95-1.3.9-.6" fill="none" stroke="#666" stroke-linecap="round" stroke-linejoin="round" transform="translate(12.25 5.9)"/><path d="M.6 4.2h4.5v.45l-.7-.1.7.1L5.15 7q0 2.1-1.5 3.6t-3.6 1.5q-2.1 0-3.6-1.5T-5.05 7V4.55l.8-.1-.8.1V4.2h3.5l-1.8.15 1.8-.15H.6l.65.05L.6 4.2m.65.05-.25.2q-.25.3-.2.7V6.5l-.1.9-.1 1.1q-.05.5.25.9.6.9 1.8.65L2.8 10q.75-.4 1.1-1.15l.2-.3.45-1.7-.05-.7-.1-1.45v-.15l-1.5-.2-1.65-.1M-.25 5.5V4.2v1.3H-.3l-.05-.25Q-.4 4.9-.7 4.7l-.2-.15-.75.05-.9.05h-.05q-.25-.25-.65-.2l-.1-.1-.05-.05-.85.1v.05l-.1.3-.05 1.55q-.1 1.6.85 2.9.55.8 1.5 1 .9.2 1.45-.5l.15-.15q.4-.4.5-1l.15-2.2-.15-.55-.3-.3" fill="#c00" fill-rule="evenodd" transform="translate(12.25 5.9)"/><path d="M4.4 4.55v.15l.1 1.45.05.7-.45 1.7-.2.3Q3.55 9.6 2.8 10l-.15.05q-1.2.25-1.8-.65-.3-.4-.25-.9l.1-1.1.1-.9V5.15q-.05-.4.2-.7l.25-.2 1.65.1 1.5.2m-4.65.95.3.3.15.55-.15 2.2q-.1.6-.5 1l-.15.15q-.55.7-1.45.5-.95-.2-1.5-1-.95-1.3-.85-2.9l.05-1.55.1-.3V4.4l.85-.1.05.05.1.1q.4-.05.65.2h.05l.9-.05.75-.05.2.15q.3.2.35.55l.05.25h.05v.3l.05 1.7-.05-1.7v-.3m-4-1.05.9-.1-.9.1m3.1 4.6q-.15-.95-1.35-.6h-.15v.05q-.15-.25-.45-.3h-.15l-.05.05-.2.15-.05.45q.3.3.55.25l.05.1v.15l.1.1.15.1.25.05.45.25q.45.3.7-.3l.05-.05.1-.45" fill="#f36" fill-rule="evenodd" transform="translate(12.25 5.9)"/><path d="m-1.15 9.05-.1.45-.05.05q-.25.6-.7.3l-.45-.25-.25-.05-.15-.1-.1-.1V9.2L-3 9.1q-.25.05-.55-.25l.05-.45.2-.15.05-.05h.15q.3.05.45.3v-.05h.15q1.2-.35 1.35.6" fill="#fff" fill-rule="evenodd" transform="translate(12.25 5.9)"/><path d="m5.1 4.65 2.35.4m-2.35-.4-.7-.1-1.5-.2-1.65-.1L.6 4.2h-2.15l-1.8.15-.9.1-.8.1-2.4.5m7.2-.85v1.6l.05 1.7" fill="none" stroke="#333" stroke-linecap="round" stroke-linejoin="round" transform="translate(12.25 5.9)"/></g></defs></svg>

<?xml version="1.0" encoding="UTF-8" standalone="no"?>
<svg xmlns:xlink="http://www.w3.org/1999/xlink" height="100.8px" width="132.65px" xmlns="http://www.w3.org/2000/svg">
  <g transform="matrix(1.0, 0.0, 0.0, 1.0, 77.75, 73.55)">
    <use height="18.0" transform="matrix(1.0, 0.0, 0.0, 1.0, -12.25, -5.9)" width="24.45" xlink:href="#shape0"/>
  </g>
  <defs>
    <g id="shape0" transform="matrix(1.0, 0.0, 0.0, 1.0, 12.25, 5.9)">
      <path d="M6.4 -0.6 Q8.9 -0.1 11.5 0.8 L12.2 1.65 9.05 1.9 7.35 1.75 4.85 1.55 0.9 1.4 -5.4 1.5 -7.9 1.75 -8.15 1.75 -8.75 1.85 -12.2 1.75 -12.25 1.6 Q-12.25 0.9 -9.9 0.0 L-6.75 -0.75 -6.7 -0.8 -1.25 -1.35 0.35 -1.35 0.95 -1.3 0.9 -0.6 0.95 -1.3 6.4 -0.6 M-1.2 -0.7 L-1.25 -1.3 -1.25 -1.35 -1.25 -1.3 -1.2 -0.7" fill="#000000" fill-opacity="0.15294118" fill-rule="evenodd" stroke="none"/>
      <path d="M1.1 -2.3 L1.35 -3.15 1.35 -3.1 1.3 -2.4 1.1 -2.3" fill="#ffffff" fill-rule="evenodd" stroke="none"/>
      <path d="M1.35 -3.15 L1.7 -3.95 Q2.3 -5.05 3.1 -5.3 L3.65 -5.4 Q4.8 -5.4 5.6 -3.95 6.25 -2.85 6.4 -1.3 L6.4 -0.6 M-6.7 -0.8 L-6.65 -1.3 Q-6.5 -2.8 -5.85 -3.9 -5.1 -5.35 -3.95 -5.35 L-3.3 -5.2 Q-2.55 -4.95 -2.0 -3.9 -1.4 -2.85 -1.25 -1.45 L-1.25 -1.35 -1.25 -1.3 -1.2 -0.7 M0.95 -1.3 L0.95 -1.4 1.1 -2.3 1.35 -3.15 M0.95 -1.3 L0.9 -0.6" fill="none" stroke="#666666" stroke-linecap="round" stroke-linejoin="round" stroke-width="1.0"/>
      <path d="M0.6 4.2 L5.1 4.2 5.1 4.65 4.4 4.55 5.1 4.65 5.15 7.0 Q5.15 9.1 3.65 10.6 2.15 12.1 0.05 12.1 -2.05 12.1 -3.55 10.6 -5.05 9.1 -5.05 7.0 L-5.05 6.55 -5.05 4.55 -4.25 4.45 -5.05 4.55 -5.05 4.2 -1.55 4.2 -3.35 4.35 -1.55 4.2 -0.25 4.2 0.6 4.2 1.25 4.25 0.6 4.2 M1.25 4.25 L1.0 4.45 Q0.75 4.75 0.8 5.15 L0.8 6.5 0.7 7.4 0.6 8.5 Q0.55 9.0 0.85 9.4 1.45 10.3 2.65 10.05 L2.8 10.0 Q3.55 9.6 3.9 8.85 L4.1 8.55 4.55 6.85 4.5 6.15 4.4 4.7 4.4 4.55 2.9 4.35 1.25 4.25 M-0.25 5.5 L-0.25 4.2 -0.25 5.5 -0.3 5.5 -0.35 5.25 Q-0.4 4.9 -0.7 4.7 L-0.9 4.55 -1.65 4.6 -2.55 4.65 -2.6 4.65 Q-2.85 4.4 -3.25 4.45 L-3.35 4.35 -3.4 4.3 -4.25 4.4 -4.25 4.45 -4.35 4.75 -4.4 6.3 Q-4.5 7.9 -3.55 9.2 -3.0 10.0 -2.05 10.2 -1.15 10.4 -0.6 9.7 L-0.45 9.55 Q-0.05 9.15 0.05 8.55 L0.2 6.35 0.05 5.8 -0.25 5.5" fill="#cc0000" fill-rule="evenodd" stroke="none"/>
      <path d="M4.4 4.55 L4.4 4.7 4.5 6.15 4.55 6.85 4.1 8.55 3.9 8.85 Q3.55 9.6 2.8 10.0 L2.65 10.05 Q1.45 10.3 0.85 9.4 0.55 9.0 0.6 8.5 L0.7 7.4 0.8 6.5 0.8 5.15 Q0.75 4.75 1.0 4.45 L1.25 4.25 2.9 4.35 4.4 4.55 M-0.25 5.5 L0.05 5.8 0.2 6.35 0.05 8.55 Q-0.05 9.15 -0.45 9.55 L-0.6 9.7 Q-1.15 10.4 -2.05 10.2 -3.0 10.0 -3.55 9.2 -4.5 7.9 -4.4 6.3 L-4.35 4.75 -4.25 4.45 -4.25 4.4 -3.4 4.3 -3.35 4.35 -3.25 4.45 Q-2.85 4.4 -2.6 4.65 L-2.55 4.65 -1.65 4.6 -0.9 4.55 -0.7 4.7 Q-0.4 4.9 -0.35 5.25 L-0.3 5.5 -0.25 5.5 -0.25 5.8 -0.2 7.5 -0.25 5.8 -0.25 5.5 M-4.25 4.45 L-3.35 4.35 -4.25 4.45 M-1.15 9.05 Q-1.3 8.1 -2.5 8.45 L-2.65 8.45 -2.65 8.5 Q-2.8 8.25 -3.1 8.2 L-3.25 8.2 -3.3 8.25 -3.5 8.4 -3.55 8.85 Q-3.25 9.15 -3.0 9.1 L-2.95 9.2 -2.95 9.35 -2.85 9.45 -2.7 9.55 -2.45 9.6 -2.0 9.85 Q-1.55 10.15 -1.3 9.55 L-1.25 9.5 -1.15 9.05" fill="#ff3366" fill-rule="evenodd" stroke="none"/>
      <path d="M-1.15 9.05 L-1.25 9.5 -1.3 9.55 Q-1.55 10.15 -2.0 9.85 L-2.45 9.6 -2.7 9.55 -2.85 9.45 -2.95 9.35 -2.95 9.2 -3.0 9.1 Q-3.25 9.15 -3.55 8.85 L-3.5 8.4 -3.3 8.25 -3.25 8.2 -3.1 8.2 Q-2.8 8.25 -2.65 8.5 L-2.65 8.45 -2.5 8.45 Q-1.3 8.1 -1.15 9.05" fill="#ffffff" fill-rule="evenodd" stroke="none"/>
      <path d="M5.1 4.65 L7.45 5.05 M5.1 4.65 L4.4 4.55 2.9 4.35 1.25 4.25 0.6 4.2 -1.55 4.2 -3.35 4.35 -4.25 4.45 -5.05 4.55 -7.45 5.05 M-0.25 4.2 L-0.25 5.5 -0.25 5.8 -0.2 7.5" fill="none" stroke="#333333" stroke-linecap="round" stroke-linejoin="round" stroke-width="1.0"/>
    </g>
  </defs>
</svg>
